resources/svg/select-all.svg

<svg xmlns="http://www.w3.org/2000/svg" viewBox="0 0 20 18" fill="currentColor"><path d="M3.00979246,14.0000651 C3.55645127,14.0062431 3.99769589,14.4515628 3.99769589,15 L16.0023041,15 C16.0023041,14.4477153 16.4497615,14 17.0017281,14 L17.0017281,4 C16.4497615,4 16.0023041,3.55228475 16.0023041,3 L4.00921643,3 C4.00921643,3.55228475 3.56175908,4 3.00979246,4 L3.00979246,14.0000651 Z M3.99769589,17 C3.99769589,17.5522847 3.55023854,18 2.99827192,18 L0.999423973,18 C0.447457354,18 0,17.5522847 0,17 L0,15 C0,14.4477153 0.447457354,14 0.999423973,14 L1.01094451,14 L1.01094451,4 C0.458977892,4 0.0115205377,3.55228475 0.0115205377,3 L0.0115205377,1 C0.0115205377,0.44771525 0.458977892,0 1.01094451,0 L3.00979246,0 C3.56175908,0 4.00921643,0.44771525 4.00921643,1 L16.0023041,1 C16.0023041,0.44771525 16.4497615,0 17.0017281,0 L19.000576,0 C19.5525426,0 20,0.44771525 20,1 L20,3 C20,3.55228475 19.5525426,4 19.000576,4 L19.000576,14 C19.5525426,14 20,14.4477153 20,15 L20,17 C20,17.5522847 19.5525426,18 19.000576,18 L17.0017281,18 C16.4497615,18 16.0023041,17.5522847 16.0023041,17 L3.99769589,17 Z"/></svg>

<svg xmlns="http://www.w3.org/2000/svg" fill="currentColor" viewBox="0 0 20 18"><path d="M3.01 14a1 1 0 0 1 .988 1h12.004a1 1 0 0 1 1-1V4a1 1 0 0 1-1-1H4.01a1 1 0 0 1-1 1v10Zm.988 3a1 1 0 0 1-1 1H1a1 1 0 0 1-1-1v-2a1 1 0 0 1 1-1h.01V4a1 1 0 0 1-.998-1V1a1 1 0 0 1 .999-1H3.01a1 1 0 0 1 1 1h11.992a1 1 0 0 1 1-1H19a1 1 0 0 1 1 1v2a1 1 0 0 1-1 1v10a1 1 0 0 1 1 1v2a1 1 0 0 1-1 1h-1.998a1 1 0 0 1-1-1H3.998Z"/></svg>
